icons/sign-out-16.svg

<svg xmlns="http://www.w3.org/2000/svg" width="16" height="16" viewBox="0 0 16 16"><path d="M2 2.75C2 1.784 2.784 1 3.75 1h2.5a.75.75 0 010 1.5h-2.5a.25.25 0 00-.25.25v10.5c0 .138.112.25.25.25h2.5a.75.75 0 010 1.5h-2.5A1.75 1.75 0 012 13.25zm10.44 4.5l-1.97-1.97a.749.749 0 01.326-1.275.749.749 0 01.734.215l3.25 3.25a.75.75 0 010 1.06l-3.25 3.25a.749.749 0 01-1.275-.326.749.749 0 01.215-.734l1.97-1.97H6.75a.75.75 0 010-1.5z"/></svg>

<svg xmlns="http://www.w3.org/2000/svg" width="16" height="16" viewBox="0 0 16 16">
  <defs/>
  <path d="M2,2.75 C2,1.784 2.784,1 3.75,1 L6.25,1 C6.664,1 7,1.336 7,1.75 C7,2.164 6.664,2.5 6.25,2.5 L3.75,2.5 C3.612,2.5 3.5,2.612 3.5,2.75 L3.5,13.25 C3.5,13.388 3.612,13.5 3.75,13.5 L6.25,13.5 C6.664,13.5 7,13.836 7,14.25 C7,14.664 6.664,15 6.25,15 L3.75,15 C2.784,15 2,14.216 2,13.25 Z M12.44,7.25 L10.47,5.28 C10.269,5.093 10.187,4.811 10.255,4.546 C10.322,4.28 10.53,4.072 10.796,4.005 C11.061,3.937 11.343,4.019 11.53,4.22 L14.78,7.47 C15.072,7.763 15.072,8.237 14.78,8.53 L11.53,11.78 C11.343,11.981 11.061,12.063 10.796,11.995 C10.53,11.928 10.322,11.72 10.255,11.454 C10.187,11.189 10.269,10.907 10.47,10.72 L12.44,8.75 L6.75,8.75 C6.336,8.75 6,8.414 6,8 C6,7.586 6.336,7.25 6.75,7.25 Z"/>
</svg>
